Svgs/anexia.svg

<?xml version="1.0" encoding="UTF-8" standalone="no"?>
<svg
   id="svg2"
   data-name="Ebene 1"
   width="7030.000000pt"
   height="4686.000000pt"
   viewBox="0 0 7030.000000 4686.000000"
   version="1.1"
   sodipodi:docname="anexia.svg"
   inkscape:version="1.4 (e7c3feb100, 2024-10-09)"
   xmlns:inkscape="http://www.inkscape.org/namespaces/inkscape"
   xmlns:sodipodi="http://sodipodi.sourceforge.net/DTD/sodipodi-0.dtd"
   xmlns="http://www.w3.org/2000/svg"
   xmlns:svg="http://www.w3.org/2000/svg">
  <defs
     id="defs6" />
  <sodipodi:namedview
     id="namedview6"
     pagecolor="#ffffff"
     bordercolor="#666666"
     borderopacity="1.0"
     inkscape:showpageshadow="2"
     inkscape:pageopacity="0.0"
     inkscape:pagecheckerboard="0"
     inkscape:deskcolor="#d1d1d1"
     inkscape:document-units="pt"
     inkscape:zoom="0.13580796"
     inkscape:cx="3677.9876"
     inkscape:cy="2319.4517"
     inkscape:window-width="2560"
     inkscape:window-height="1410"
     inkscape:window-x="0"
     inkscape:window-y="0"
     inkscape:window-maximized="1"
     inkscape:current-layer="svg2" />
  <title
     id="title1">anexia</title>
  <rect
     width="2293.0801"
     height="940.16278"
     style="fill:#000000;stroke-width:11.4654"
     id="rect1"
     x="2368.46"
     y="1872.9186" />
  <path
     d="m 2914.0984,2563.2503 h -62.8304 l -4.8155,-4.9301 1.3759,-37.3772 h -2.8664 a 113.62211,113.62211 0 0 1 -95.1628,49.3012 c -48.8426,0 -94.7042,-19.7205 -94.7042,-98.7171 0,-78.9966 59.964,-106.5135 122.7944,-106.5135 h 68.7924 v -31.6445 c 0,-31.7592 -22.9308,-50.1038 -62.1424,-50.1038 a 904.04679,904.04679 0 0 0 -98.0292,6.9939 l -5.1594,-4.5862 v -53.8874 a 1047.7083,1047.7083 0 0 1 114.654,-7.1085 c 53.5434,0 117.7496,14.1024 117.7496,93.099 z m -67.6459,-144.5787 h -50.1038 c -48.04,0 -72.6906,10.5482 -72.6906,48.728 0,38.1798 26.829,44.3711 51.4796,44.3711 a 84.27069,84.27069 0 0 0 71.3148,-35.3134 z"
     style="fill:#ffffff;stroke-width:11.4654"
     id="path1" />
  <path
     d="m 3249.1174,2563.2503 h -67.7605 v -234.8114 c 0,-36.6892 -20.4085,-45.1736 -47.2375,-45.1736 -23.9627,0 -47.2374,10.5481 -75.4423,42.9952 v 236.9898 h -68.7924 v -331.4647 h 63.5183 l 4.9301,4.9301 -1.0319,37.4919 h 2.7517 a 112.01696,112.01696 0 0 1 94.5896,-49.4159 c 53.5434,0 94.4749,20.4084 94.4749,99.405 z"
     style="fill:#ffffff;stroke-width:11.4654"
     id="path2" />
  <path
     d="m 3563.7279,2418.6716 h -177.0257 v 34.3962 c 0,50.7918 33.0203,56.4098 72.576,56.4098 a 653.5278,653.5278 0 0 0 88.8568,-6.9939 l 4.9301,4.9301 v 55.7219 a 918.95181,918.95181 0 0 1 -109.9532,6.9939 c -58.5882,0 -124.8582,-18.23 -124.8582,-97.2266 v -143.0882 c 0,-82.5509 66.958,-105.1377 129.7884,-105.1377 62.8304,0 129.1004,20.4084 129.1004,105.1377 a 648.13906,648.13906 0 0 1 -6.4207,81.7483 z m -177.0257,-93.7869 v 40.1289 h 116.8324 a 201.79104,201.79104 0 0 0 2.7517,-39.441 c -1.3759,-31.7592 -23.9627,-42.3073 -57.327,-42.3073 -37.1479,0 -62.2571,12.7266 -62.2571,41.6194 z"
     style="fill:#ffffff;stroke-width:11.4654"
     id="path3" />
  <path
     d="m 3908.6072,2563.2503 h -81.863 l -64.8941,-111.4437 -88.8569,151.2287 h -81.8629 l 127.0366,-207.6384 -100.8955,-163.6113 h 81.175 l 63.4037,109.9532 62.7157,-109.9532 h 81.0604 l -100.8955,163.6113 z"
     style="fill:#ffffff;stroke-width:11.4654"
     id="path4" />
  <path
     d="m 4028.4206,2231.7856 v 331.4647 h -68.7924 v -331.4647 z"
     style="fill:#ffffff;stroke-width:11.4654"
     id="path5" />
  <path
     d="m 4348.6492,2563.2503 h -62.7157 l -5.0448,-4.9301 1.4905,-37.3772 h -2.8663 a 113.62211,113.62211 0 0 1 -95.1628,49.3012 c -48.728,0 -94.4749,-19.7205 -94.4749,-98.7171 0,-78.9966 59.8493,-106.5135 122.6797,-106.5135 h 68.7924 v -31.6445 c 0,-31.7592 -22.9308,-50.1038 -62.0278,-50.1038 a 904.04679,904.04679 0 0 0 -98.0291,6.9939 l -4.9302,-4.9302 v -53.5434 a 1047.7083,1047.7083 0 0 1 114.654,-7.1085 c 53.5434,0 117.7497,14.1024 117.7497,93.099 z m -67.7605,-144.5787 h -49.9891 c -48.0401,0 -72.6907,10.5482 -72.6907,48.728 0,38.1798 26.8291,44.3711 51.4797,44.3711 a 83.926728,83.926728 0 0 0 71.2001,-35.3134 z"
     style="fill:#ffffff;stroke-width:11.4654"
     id="path6" />
  <polygon
     points="145.31,19.42 144.91,21.22 146.74,21.49 145.55,22.9 147.04,23.99 145.33,24.68 146.15,26.34 144.31,26.16 144.27,28 142.72,27 141.83,28.61 140.93,27 139.39,28 139.34,26.16 137.5,26.34 138.32,24.68 136.61,23.99 138.1,22.9 136.92,21.49 138.74,21.22 138.34,19.42 140.08,20.03 140.57,18.25 141.83,19.6 143.08,18.25 143.57,20.03 "
     style="fill:#ffffff"
     id="polygon6"
     transform="matrix(11.4654,0,0,11.4654,2368.46,1872.9186)" />
</svg>

<?xml version="1.0" encoding="UTF-8" standalone="no"?>
<svg
   id="svg2"
   data-name="Ebene 1"
   width="7030.000000pt"
   height="4686.000000pt"
   viewBox="0 0 7030.000000 4686.000000"
   version="1.1"
   sodipodi:docname="anexia.svg"
   inkscape:version="1.4 (e7c3feb100, 2024-10-09)"
   xmlns:inkscape="http://www.inkscape.org/namespaces/inkscape"
   xmlns:sodipodi="http://sodipodi.sourceforge.net/DTD/sodipodi-0.dtd"
   xmlns="http://www.w3.org/2000/svg"
   xmlns:svg="http://www.w3.org/2000/svg">
  <defs
     id="defs6" />
  <sodipodi:namedview
     id="namedview6"
     pagecolor="#ffffff"
     bordercolor="#666666"
     borderopacity="1.0"
     inkscape:showpageshadow="2"
     inkscape:pageopacity="0.0"
     inkscape:pagecheckerboard="0"
     inkscape:deskcolor="#d1d1d1"
     inkscape:document-units="pt"
     inkscape:zoom="0.13580796"
     inkscape:cx="3677.9876"
     inkscape:cy="2319.4517"
     inkscape:window-width="2560"
     inkscape:window-height="1410"
     inkscape:window-x="0"
     inkscape:window-y="0"
     inkscape:window-maximized="1"
     inkscape:current-layer="svg2" />
  <title
     id="title1">anexia</title>
  <path
     id="rect1"
     style="fill:#000000;stroke-width:11.4654"
     d="M 2368.4604 1872.9185 L 2368.4604 2813.0815 L 4661.54 2813.0815 L 4661.54 1872.9185 L 2368.4604 1872.9185 z M 3980.1519 2082.1626 L 3994.5981 2097.6401 L 4008.9287 2082.1626 L 4014.5479 2102.5708 L 4034.4976 2095.5762 L 4029.9111 2116.2144 L 4050.8921 2119.3096 L 4037.2485 2135.4756 L 4054.333 2147.9736 L 4034.7261 2155.8853 L 4044.1289 2174.9165 L 4023.0322 2172.854 L 4022.5737 2193.9492 L 4004.8022 2182.4839 L 3994.5981 2200.9438 L 3984.2783 2182.4839 L 3966.6226 2193.9492 L 3966.0483 2172.854 L 3944.9531 2174.9165 L 3954.3545 2155.8853 L 3934.749 2147.9736 L 3951.832 2135.4756 L 3938.3027 2119.3096 L 3959.1694 2116.2144 L 3954.583 2095.5762 L 3974.5327 2102.5708 L 3980.1519 2082.1626 z M 2796.0044 2224.6772 C 2849.5477 2224.6772 2913.7544 2238.7789 2913.7544 2317.7754 L 2914.0986 2563.251 L 2851.2686 2563.251 L 2846.4521 2558.3203 L 2847.8291 2520.9434 L 2844.9624 2520.9434 A 113.62211 113.62211 0 0 1 2749.7988 2570.2441 C 2700.9563 2570.2441 2655.0952 2550.5234 2655.0952 2471.5269 C 2655.0952 2392.5303 2715.0583 2365.0137 2777.8887 2365.0137 L 2846.6821 2365.0137 L 2846.6821 2333.3687 C 2846.6821 2301.6095 2823.7506 2283.2651 2784.5391 2283.2651 A 904.04679 904.04679 0 0 0 2686.5103 2290.2598 L 2681.3511 2285.6733 L 2681.3511 2231.7861 A 1047.7083 1047.7083 0 0 1 2796.0044 2224.6772 z M 3448.0415 2224.6772 C 3510.8718 2224.6772 3577.1426 2245.0857 3577.1426 2329.8149 A 648.13906 648.13906 0 0 1 3570.7222 2411.5635 L 3563.7275 2418.6709 L 3386.7026 2418.6709 L 3386.7026 2453.0684 C 3386.7026 2503.8601 3419.7227 2509.478 3459.2783 2509.478 A 653.5278 653.5278 0 0 0 3548.1343 2502.4834 L 3553.0649 2507.4141 L 3553.0649 2563.1353 A 918.95181 918.95181 0 0 1 3443.1123 2570.1299 C 3384.5242 2570.1299 3318.2534 2551.8989 3318.2534 2472.9023 L 3318.2534 2329.8149 C 3318.2534 2247.2641 3385.2112 2224.6772 3448.0415 2224.6772 z M 4231.0137 2224.6772 C 4284.557 2224.6772 4348.7637 2238.7789 4348.7637 2317.7754 L 4348.6494 2563.251 L 4285.9336 2563.251 L 4280.8887 2558.3203 L 4282.3799 2520.9434 L 4279.5132 2520.9434 A 113.62211 113.62211 0 0 1 4184.3496 2570.2441 C 4135.6217 2570.2441 4089.8745 2550.5234 4089.8745 2471.5269 C 4089.8745 2392.5303 4149.7248 2365.0137 4212.5552 2365.0137 L 4281.3472 2365.0137 L 4281.3472 2333.3687 C 4281.3472 2301.6095 4258.4168 2283.2651 4219.3198 2283.2651 A 904.04679 904.04679 0 0 0 4121.291 2290.2598 L 4116.3604 2285.3291 L 4116.3604 2231.7861 A 1047.7083 1047.7083 0 0 1 4231.0137 2224.6772 z M 3154.6421 2224.7915 C 3208.1854 2224.7915 3249.1172 2245.2007 3249.1172 2324.1973 L 3249.1172 2563.251 L 3181.3564 2563.251 L 3181.3564 2328.4395 C 3181.3564 2291.7503 3160.9486 2283.2651 3134.1196 2283.2651 C 3110.157 2283.2651 3086.8821 2293.8142 3058.6772 2326.2612 L 3058.6772 2563.251 L 2989.8853 2563.251 L 2989.8853 2231.7861 L 3053.4023 2231.7861 L 3058.333 2236.7153 L 3057.3018 2274.208 L 3060.0527 2274.208 A 112.01696 112.01696 0 0 1 3154.6421 2224.7915 z M 3617.272 2231.7861 L 3698.4463 2231.7861 L 3761.8506 2341.7388 L 3824.5664 2231.7861 L 3905.6265 2231.7861 L 3804.731 2395.3975 L 3908.6074 2563.251 L 3826.7446 2563.251 L 3761.8506 2451.8071 L 3672.9932 2603.0347 L 3591.1304 2603.0347 L 3718.1675 2395.3975 L 3617.272 2231.7861 z M 3959.6279 2231.7861 L 4028.4199 2231.7861 L 4028.4199 2563.251 L 3959.6279 2563.251 L 3959.6279 2231.7861 z M 3448.96 2283.2651 C 3411.8121 2283.2651 3386.7026 2295.9915 3386.7026 2324.8843 L 3386.7026 2365.0137 L 3503.5342 2365.0137 A 201.79104 201.79104 0 0 0 3506.2866 2325.5728 C 3504.9107 2293.8136 3482.3242 2283.2651 3448.96 2283.2651 z M 2796.3486 2418.6709 C 2748.3087 2418.6709 2723.6587 2429.2192 2723.6587 2467.3989 C 2723.6587 2505.5787 2750.4871 2511.7705 2775.1377 2511.7705 A 84.27069 84.27069 0 0 0 2846.4521 2476.4575 L 2846.4521 2418.6709 L 2796.3486 2418.6709 z M 4230.8994 2418.6709 C 4182.8594 2418.6709 4158.2095 2429.2192 4158.2095 2467.3989 C 4158.2095 2505.5787 4185.0379 2511.7705 4209.6885 2511.7705 A 83.926728 83.926728 0 0 0 4280.8887 2476.4575 L 4280.8887 2418.6709 L 4230.8994 2418.6709 z " />
</svg>
